X: 66
T:Hey, Boys, Up Go We
M:6/8
L:1/8
Q:160
S:Playford
O:Manuscript
A:English
K:C
d2 d d2 c|B2 c d2 G\A2 A B>AB| c3 c3|d2 d d2 c|B2 c d2 G\A2 A B>AB| c3 c2:|
|: E|FGF FDF|D2 D BAB|c2 G A G2|E3 C>DE|FGF FDF|D2 D BAB|c2 G A G2|E3 C3:|

